images_sukapura_svg/cmd/sc_datafilterautofilter.svg

<svg viewBox="0 0 16 16" xmlns="http://www.w3.org/2000/svg">/&amp;amp;gt;<g fill-rule="evenodd"><path d="m.50390612 1.9980473-.001953 1.3144527 6.17382808 5.6132812v5.6718748l1.5585938-2.597656h-.234375c-.8906366-.00035-1.336587-1.077036-.7070312-1.707031l4.0000002-4.0000002c.187512-.1875362.441832-.2929177.707031-.2929688h.527344l2.970703-2.7167969.001953-1.2851558zm8.82031268 13.3261717-.2011719.173828h.2011719z" fill="#848489"/><path d="m.50390612 1.4960937c-.27734535-.0003003-.50225343.2246078-.50195312.5019531l-.001953 1.3144528c-.00003865.1412881.05953385.2760354.1640625.3710938l6.0117187 5.4648437v6.2832039l1.0019532-1.669922v-2.195313c-.2353656-.341641-.2353656-.793124 0-1.134765v-1.5058602c-.0005101-.1406077-.0600357-.2745403-.1640625-.3691406l-6.0117188-5.4667968.001953-.5898434h13.9960939l-.002.5605465-3.253906 2.9746093c.083455-.0227278.169459-.0345451.255906-.0351562h1.267578l2.56836-2.3476562c.104027-.0946004.163552-.2285331.164062-.3691407l.002-1.2851559c.000253-.2773453-.224655-.5022533-.502-.5019531z" fill="#69696e"/><path d="m12 7h4l-3 3h1l-6.9999999 6 2.9999996-5h-1.9999996z" fill="#ff9500"/></g><ellipse cx="8" cy="1.765338" fill="#cdcdd0" rx="7.5" ry="1.264185" stroke="#69696e" stroke-linecap="round" stroke-linejoin="round" stroke-width="1.002306"/></svg>

<?xml version="1.0" encoding="UTF-8" standalone="no"?>
<svg
   xmlns:dc="http://purl.org/dc/elements/1.1/"
   xmlns:cc="http://creativecommons.org/ns#"
   xmlns:rdf="http://www.w3.org/1999/02/22-rdf-syntax-ns#"
   xmlns:svg="http://www.w3.org/2000/svg"
   xmlns="http://www.w3.org/2000/svg"
   xmlns:sodipodi="http://sodipodi.sourceforge.net/DTD/sodipodi-0.dtd"
   xmlns:inkscape="http://www.inkscape.org/namespaces/inkscape"
   viewBox="0 0 16 16"
   version="1.1"
   id="svg10"
   sodipodi:docname="sc_datafilterautofilter.svg"
   inkscape:version="0.92.3 (2405546, 2018-03-11)"><metadata
   id="metadata16">
  <rdf:RDF>
    <cc:Work
       rdf:about="">
      <dc:format>image/svg+xml</dc:format>
      <dc:type
         rdf:resource="http://purl.org/dc/dcmitype/StillImage" />
      <dc:title></dc:title>
    </cc:Work>
  </rdf:RDF>
</metadata>
<defs
   id="defs14" />
<sodipodi:namedview
   pagecolor="#ffffff"
   bordercolor="#666666"
   borderopacity="1"
   objecttolerance="10"
   gridtolerance="10"
   guidetolerance="10"
   inkscape:pageopacity="0"
   inkscape:pageshadow="2"
   inkscape:window-width="1366"
   inkscape:window-height="685"
   id="namedview12"
   showgrid="true"
   inkscape:zoom="10.429825"
   inkscape:cx="11.337059"
   inkscape:cy="8.5598663"
   inkscape:window-x="0"
   inkscape:window-y="0"
   inkscape:window-maximized="1"
   inkscape:current-layer="svg10">
  <inkscape:grid
     type="xygrid"
     id="grid823"
     spacingx="0.5"
     spacingy="0.5"
     empspacing="2" />
</sodipodi:namedview>



     /&amp;gt;
 <g
   fill-rule="evenodd"
   id="g8">
  <path
     d="M 0.50390612,1.9980473 0.50195312,3.3125 6.6757812,8.9257812 V 14.597656 L 8.234375,12 H 8 C 7.1093634,11.99965 6.663413,10.922964 7.2929688,10.292969 L 11.292969,6.2929688 C 11.480481,6.1054326 11.734801,6.0000511 12,6 h 0.527344 L 15.498047,3.2832031 15.5,1.9980473 Z M 9.3242188,15.324219 9.1230469,15.498047 h 0.2011719 z"
     id="path2"
     style="fill:#848489;fill-opacity:1;stroke:none"
     inkscape:connector-curvature="0"
     sodipodi:nodetypes="ccccccccccccccccc" />
  <path
     d="M 0.50390612,1.4960937 C 0.22656077,1.4957934 0.00165269,1.7207015 0.001953,1.9980468 L 0,3.3124996 C -3.865e-5,3.4537877 0.05953385,3.588535 0.1640625,3.6835934 l 6.0117187,5.4648437 v 6.2832039 l 1.0019532,-1.669922 v -2.195313 c -0.2353656,-0.341641 -0.2353656,-0.793124 0,-1.134765 V 8.9257808 C 7.1772243,8.7851731 7.1176987,8.6512405 7.0136719,8.5566402 L 1.0019531,3.0898434 1.0039061,2.5 H 15 l -0.002,0.5605465 -3.253906,2.9746093 C 11.827549,6.012428 11.913553,6.0006107 12,5.9999996 h 1.267578 l 2.56836,-2.3476562 C 15.939965,3.557743 15.99949,3.4238103 16,3.2832027 l 0.002,-1.2851559 C 16.002253,1.7207015 15.777345,1.4957935 15.5,1.4960937 Z"
     id="path4"
     style="fill:#69696e;fill-opacity:1"
     inkscape:connector-curvature="0"
     sodipodi:nodetypes="ccccccccccccccccccccccc" />
  <path
     d="m12 7h4l-3 3h1l-6.9999999 6 2.9999996-5h-1.9999996z"
     fill="#eac282"
     id="path6"
     style="fill:#ff9500;fill-opacity:1" />
</g>
<ellipse
   style="opacity:1;fill:#cdcdd0;fill-opacity:1;stroke:#69696e;stroke-width:1.00230575;stroke-linecap:round;stroke-linejoin:round;stroke-miterlimit:4;stroke-dasharray:none;stroke-opacity:1"
   id="path832"
   ry="1.2641851"
   rx="7.5"
   cy="1.7653379"
   cx="8" />
</svg>
